Origami/16x16/apps/xiphos.svg

<svg width="16" height="16" version="1.1" viewBox="0 0 16 16" xmlns="http://www.w3.org/2000/svg">
 <path d="m2.8181819 2.0000065e-8c-0.453273 0-0.8181821 0.38228578-0.8181821 0.85714285v14.285715c0 0.474856 0.3649091 0.857142 0.8181821 0.857142h10.363636c0.453273 0 0.818182-0.382286 0.818182-0.857142v-14.285715c0-0.47485707-0.364909-0.85714285-0.818182-0.85714285z" style="fill:#961a1a"/>
 <path d="m2.8181819 2.0000066e-8c-0.453273 0-0.8181821 0.38228578-0.8181821 0.85714285v14.285715c0 0.474856 0.3649091 0.857142 0.8181821 0.857142h1.1818181v-16z" style="opacity:.2"/>
 <rect x="8" y="3" width="2" height="10" style="fill:#ffffff"/>
 <rect transform="rotate(90)" x="5" y="-12" width="2" height="6" style="fill:#ffffff"/>
</svg>

<svg xmlns="http://www.w3.org/2000/svg" width="16" height="16" version="1.1" viewBox="0 0 16 16">
 <path style="fill:#961a1a" d="M 2.8181819,2.0000065e-8 C 2.3649089,2.0000065e-8 1.9999998,0.3822858 1.9999998,0.85714287 V 15.142858 C 1.9999998,15.617714 2.3649089,16 2.8181819,16 H 13.181818 C 13.635091,16 14,15.617714 14,15.142858 V 0.85714287 C 14,0.3822858 13.635091,2.0000065e-8 13.181818,2.0000065e-8 Z"/>
 <path style="opacity:0.2" d="M 2.8181819,2.0000066e-8 C 2.3649089,2.0000066e-8 1.9999998,0.3822858 1.9999998,0.85714287 V 15.142858 C 1.9999998,15.617714 2.3649089,16 2.8181819,16 H 4 V 2.0000066e-8 Z"/>
 <rect style="fill:#ffffff" width="2" height="10" x="8" y="3"/>
 <rect style="fill:#ffffff" width="2" height="6" x="5" y="-12" transform="rotate(90)"/>
</svg>
